X:1
T:Title
%%score { ( 1 3 ) | 2 }
L:1/8
Q:1/4=117
M:3/4
K:Bb
V:1 treble nm="Grand Piano"
V:3 treble 
V:2 bass 
V:1
 z2 z2 z/ [DF]3/2 | DD D[CE] [DF][DF] | [DF][DF] GB Ac | B3 [DF] GG | ^FG [Ac][GB] [=FA][EG] | %5
 [DF][DF] [FB][FB] c2- | cF [Fd][Fd] [Fd][Ec] | [DB][EB] [DB][FB] [Gc][Gc] | [Gd][Gd] [Ge]3 [Ge] | %9
 [Ge][Gd] [Gc][GB] AG | (3:2:2F2 B dd Bc | z2 z2 z e- | e2 z2 z2 | d4 z2 | z6 | %15
 [=Ec][EB] [EA][EB] c2 | c2 c3 F | [Fd]>[Fd] [Ec][Fd] [Ec][DB]- | [DB][FB] [Gc][Gc] [Gd][Gd] | %19
 [Ge][Ge] (3:2:2[Bf]2 [Ge] d<B | z2 d4 | [DFB]6 |] %22
V:2
 z2 z2 z/ [B,,B,]3/2 | [B,,F,B,][B,,F,B,] [B,,F,B,][B,,F,] [B,,B,][B,,B,] | %2
 [B,,B,][B,,B,] [E,B,E][E,G,E] [F,E][F,A,E] | [B,D]3 [B,,B,] [E,B,E][E,B,E] | %4
 [E,A,E][E,B,E] [E,E][E,E] [E,B,][E,B,] | [B,,B,][B,,B,] [D,B,][D,B,] [F,A,F]2- | %6
 [F,A,F][F,A,] [B,,B,][B,,B,] [B,,B,][B,,G,] | [B,,F,][B,,G,] [B,,F,][D,B,] [E,B,][E,B,] | %8
 [D,=B,][D,B,] [C,C]3 [C,C] | [C,C][D,=B,] [E,C][=E,C] [F,CF][G,C=E] | %10
 (3:2:2[A,CE]2 [G,C=E] [F,B,F][F,B,F] [F,D][F,A,_E] | [B,,B,]4 z2 | %12
 (3:2:2[F,A,] [F,C]2 (3:2:2[F,D]/[F,E]-[F,E] z2 | z [B,,B,] [B,,B,]>[B,,G,] [B,,F,]2- | %14
 [B,,F,][D,B,] [E,B,E]2 [D,=B,]2 | [C,C][C,C] [C,C][C,B,][K:treble] [F,A,F]2 | %16
 [G,B,=E]2 [A,CF]3[K:bass] [F,A,] | [B,,B,]>[B,,B,] [B,,B,][B,,B,] [B,,F,][B,,F,]- | %18
 [B,,F,][D,B,] [E,B,][E,B,] [D,=B,][D,B,] | [C,C][C,C] (3:2:2[D,B,]2 [E,B,] [F,B,F]<[F,DF] | %20
 (3[G,C=E][G,CE][G,CE] [F,B,F][F,D] (3:2:2[F,F]2 [F,F] | [B,,B,]6 |] %22
V:3
 x6 | x6 | x6 | x6 | x6 | x6 | x6 | x6 | x6 | x6 | x6 | [DB]3 F/F/ .F2 | %12
 (3:2:2c A2 (3:2:2[Bd]/[Ac]-[Ac] (3FFF | z F F>[Ec] [DB]2- | [DB]F G2 [FG]2 | x6 | x6 | x6 | x6 | %19
 x6 | (3BAB z B Ac | x6 |] %22

